lib/preview/nrk-logo-preview-nrk-mp3-on-light.svg

<svg width="68" height="14" viewBox="0 0 68 14" fill="none" xmlns="http://www.w3.org/2000/svg">
<path d="M0 12.9948V0.995841H3.93719V12.9948H0ZM9.29381 2.90553L11.5581 12.9948H7.24917L4.54549 0.995841H6.96218C7.51635 0.988649 8.05406 1.184 8.4745 1.54514C8.89562 1.89113 9.18495 2.37145 9.29381 2.90553ZM12.1495 12.9948V0.995841H16.0867V12.9948H12.1495ZM19.0605 5.55885C18.6362 5.56299 18.2188 5.45198 17.8525 5.23772C17.4912 5.02887 17.1911 4.72871 16.9823 4.36735C16.7678 4.00108 16.6568 3.58351 16.661 3.15907C16.6561 2.73721 16.7672 2.32213 16.9823 1.95918C17.1933 1.60174 17.4931 1.30484 17.8525 1.09727C18.2189 0.883253 18.6362 0.772266 19.0605 0.776135C19.4822 0.771593 19.8971 0.88268 20.2602 1.09727C20.616 1.30666 20.9127 1.60331 21.122 1.95918C21.3368 2.32223 21.4479 2.73724 21.4433 3.15907C21.4473 3.58348 21.3363 4.00098 21.122 4.36735C20.9149 4.72713 20.6179 5.02703 20.2602 5.23772C19.8971 5.45273 19.4819 5.56384 19.0599 5.55885H19.0605ZM22.0516 12.9948V0.995841H25.9892V12.9948H22.0516ZM30.9737 7.55298C30.9848 7.56463 31.0693 7.70263 31.2272 7.96702C31.3851 8.23141 31.5906 8.56944 31.8439 8.98104C32.0974 9.39246 32.3649 9.82901 32.6463 10.2908C32.9278 10.7525 33.1926 11.1891 33.4408 11.6005C33.6881 12.0119 33.9697 12.4767 34.2857 12.9948H29.9598C29.6893 12.5554 29.4441 12.1582 29.2245 11.8033C29.0048 11.4484 28.7713 11.0653 28.5238 10.6541C28.2758 10.2433 28.0306 9.84329 27.7882 9.45422C27.5458 9.06514 27.3375 8.72436 27.1633 8.43181C26.9883 8.13907 26.8671 7.94187 26.7997 7.84029C26.6325 7.5882 26.5336 7.29705 26.5127 6.9953C26.5294 6.70569 26.6226 6.42573 26.7828 6.18386C26.8504 6.0712 26.9743 5.87118 27.1545 5.58388C27.3348 5.29658 27.546 4.9558 27.7882 4.56147C28.0304 4.16715 28.2756 3.76436 28.5238 3.35313C28.772 2.9419 29.0056 2.55599 29.2245 2.19546C29.4445 1.8353 29.6897 1.43534 29.9598 0.995566H34.2857L30.9396 6.45425C30.8361 6.61632 30.7777 6.8031 30.7706 6.9953C30.7818 7.19707 30.8522 7.39107 30.9731 7.55298H30.9737Z" fill="black"/>
<path d="M55.2768 0.994751H51.5691C51.5691 0.994751 53.6749 4.44638 53.6987 4.4908C53.7784 4.59085 53.8229 4.71432 53.8254 4.84215C53.8279 4.96998 53.7881 5.09507 53.7123 5.1981L51.5691 8.70545H55.2757C55.2757 8.70545 57.0629 5.78628 57.3074 5.38114C57.4236 5.22576 57.4855 5.03658 57.4838 4.84263C57.482 4.64868 57.4165 4.46068 57.2974 4.30746C57.0362 3.86045 57.0348 3.86073 55.2768 0.994751Z" fill="black"/>
<path d="M66.8846 2.9817C66.7599 2.7698 65.6568 0.994751 65.6568 0.994751H57.7252L59.458 3.89779H63.636L61.9114 6.72049L63.8345 9.94579L61.9805 12.9897H65.3671C65.9115 12.0999 66.7268 10.7241 66.8967 10.4434C67.0134 10.2876 67.0756 10.0978 67.0738 9.90324C67.072 9.70866 67.0063 9.52004 66.8868 9.36636C66.7169 9.07749 65.8104 7.64055 65.2685 6.75642C65.2685 6.75642 66.7268 4.34312 66.8967 4.06105C67.0137 3.90478 67.0759 3.7144 67.0737 3.51931C67.0715 3.32423 67.005 3.1353 66.8846 2.9817Z" fill="black"/>
<path d="M59.2535 7.1148C58.7314 7.96639 57.8583 9.39373 57.6955 9.67185C57.5804 9.81987 57.5172 10.0015 57.5155 10.1889C57.5138 10.3762 57.5738 10.559 57.6861 10.709C57.8498 10.9806 58.7297 12.419 59.2543 13.276C59.7787 12.419 60.6588 10.9806 60.8222 10.709C60.9346 10.559 60.9946 10.3762 60.9929 10.1889C60.9912 10.0015 60.928 9.81985 60.8129 9.67185C60.6486 9.39373 59.7753 7.96639 59.2535 7.1148Z" fill="black"/>
<path d="M48.7125 0.994751C48.3272 0.997339 47.9509 1.11186 47.6296 1.32435C47.357 1.49184 45.1342 3.37637 44.9648 3.51981C44.7948 3.37637 42.5725 1.49184 42.3 1.32435C41.9787 1.11186 41.6024 0.997339 41.2171 0.994751H38.8571V11.563L42.1374 9.10155V4.85774L44.9648 6.98305L47.7922 4.85774V12.988H51.0917V0.994751H48.7125Z" fill="black"/>
</svg>

<svg xmlns="http://www.w3.org/2000/svg" viewBox="0 0 68 14"><path fill="#000" d="M0 12.995v-12h3.937v12H0Zm9.294-10.09 2.264 10.09H7.25l-2.704-12h2.417a2.276 2.276 0 0 1 1.513.55c.42.346.71.826.819 1.36Zm2.855 10.09v-12h3.938v12h-3.938Zm6.912-7.436a2.382 2.382 0 0 1-2.4-2.4 2.301 2.301 0 0 1 .321-1.2 2.41 2.41 0 0 1 3.278-.862c.356.21.653.506.862.862.215.363.326.778.321 1.2a2.35 2.35 0 0 1-.321 1.208 2.4 2.4 0 0 1-.862.87 2.302 2.302 0 0 1-1.2.322Zm2.99 7.436v-12h3.938v12h-3.937Zm8.923-5.442c.01.012.095.15.253.414s.364.602.617 1.014a311.524 311.524 0 0 1 1.597 2.62c.247.41.529.876.845 1.394H29.96c-.27-.44-.516-.837-.736-1.192-.22-.355-.453-.738-.7-1.149-.248-.41-.493-.81-.736-1.2-.242-.389-.45-.73-.625-1.022a17.98 17.98 0 0 0-.363-.592 1.747 1.747 0 0 1-.287-.845c.016-.29.11-.57.27-.811.067-.113.191-.313.371-.6s.392-.628.634-1.023c.242-.394.488-.797.736-1.208l.7-1.158.736-1.2h4.326l-3.346 5.46a1.08 1.08 0 0 0-.17.54c.012.202.082.396.203.558ZM55.277.995h-3.708s2.106 3.451 2.13 3.496a.582.582 0 0 1 .013.707L51.57 8.705h3.707s1.787-2.919 2.031-3.324a.886.886 0 0 0-.01-1.074c-.26-.447-.262-.446-2.02-3.312ZM66.885 2.982C66.76 2.77 65.657.995 65.657.995h-7.932l1.733 2.903h4.178L61.911 6.72l1.923 3.226-1.854 3.044h3.387c.544-.89 1.36-2.266 1.53-2.547a.887.887 0 0 0-.01-1.077c-.17-.289-1.077-1.725-1.618-2.61l1.628-2.695a.887.887 0 0 0-.012-1.08Z"/><path fill="#000" d="M59.254 7.115c-.523.851-1.396 2.279-1.558 2.557a.855.855 0 0 0-.01 1.037c.164.272 1.044 1.71 1.568 2.567.525-.857 1.405-2.295 1.568-2.567a.855.855 0 0 0-.01-1.037 437.657 437.657 0 0 0-1.558-2.557ZM48.712.995a1.987 1.987 0 0 0-1.082.33c-.273.167-2.496 2.051-2.665 2.195-.17-.144-2.393-2.028-2.665-2.196a1.987 1.987 0 0 0-1.083-.33h-2.36v10.569l3.28-2.461V4.858l2.828 2.125 2.827-2.125v8.13h3.3V.995h-2.38Z"/></svg>
